svgs/pocketpaint.svg

<svg xmlns="http://www.w3.org/2000/svg" viewBox="0 0 192 192"><path d="m32.24 61.835 6.472 88.714L95.447 175.5l56.858-24.951 7.455-88.714H32.281m9.053 7.38h8.193M68.124 69.215h65.051" fill="none" stroke="#000" stroke-width="6" stroke-linecap="round" stroke-linejoin="round"/><path d="M142.473 69.215h8.193l-.778 8.113M148.003 97.06l-2.826 29.598M144.235 136.525l-.779 8.113-7.414 3.424M125.187 153.036l-16.263 7.42M103.517 162.943l-7.456 3.425-7.455-3.384M77.71 157.969l-16.386-7.461M55.835 148.022l-7.414-3.384-.779-8.113M45.799 116.792l-2.786-29.598M42.112 77.328l-.778-8.113m19.13-7.38L72.466 16.5l37.359 9.662-9.094 35.673m-31.255-33.96 16.385 4.443M65.257 43.815l16.18 4.444M63.29 51.725l10.979 2.894m-6.882-18.631 10.568 2.813M61.119 59.43l8.521 2.405m40.062 0 4.383-10.885 9.545 4.077-1.557 7.053m-6.431-10.722 2.909-7.787 6.431 2.242-2.991 8.154" fill="none" stroke="#000" stroke-width="6" stroke-linecap="round" stroke-linejoin="round"/><path d="M118.551 43.571c-.492-7.379.45-22.056 12.575-25.766 5.53 9.988.82 20.71-6.144 28.008m18.843 8.399-3.809 7.623m-10.815 0 5.53-12.23m-1.147-1.387 14.051-13.902-1.844 19.651a12.338 12.338 0 0 1-7.014-1.032 12.265 12.265 0 0 1-5.275-4.717" fill="none" stroke="#000" stroke-width="6" stroke-linecap="round" stroke-linejoin="round"/></svg>

<svg
    xmlns="http://www.w3.org/2000/svg"
    viewBox="0 0 192 192"
    id="vector">
    <path
        id="path"
        d="M 32.24 61.835 L 38.712 150.549 L 95.447 175.5 L 152.305 150.549 L 159.76 61.835 L 32.281 61.835 M 41.334 69.215 L 49.527 69.215"
        fill="none"
        stroke="#000000"
        stroke-width="6"
        stroke-linecap="round"
        stroke-linejoin="round"/>
    <path
        id="path_1"
        d="M 68.124 69.215 L 133.175 69.215"
        fill="none"
        stroke="#000000"
        stroke-width="6"
        stroke-linecap="round"
        stroke-linejoin="round"/>
    <path
        id="path_2"
        d="M 142.473 69.215 L 150.666 69.215 L 149.888 77.328"
        fill="none"
        stroke="#000000"
        stroke-width="6"
        stroke-linecap="round"
        stroke-linejoin="round"/>
    <path
        id="path_3"
        d="M 148.003 97.06 L 145.177 126.658"
        fill="none"
        stroke="#000000"
        stroke-width="6"
        stroke-linecap="round"
        stroke-linejoin="round"/>
    <path
        id="path_4"
        d="M 144.235 136.525 L 143.456 144.638 L 136.042 148.062"
        fill="none"
        stroke="#000000"
        stroke-width="6"
        stroke-linecap="round"
        stroke-linejoin="round"/>
    <path
        id="path_5"
        d="M 125.187 153.036 L 108.924 160.456"
        fill="none"
        stroke="#000000"
        stroke-width="6"
        stroke-linecap="round"
        stroke-linejoin="round"/>
    <path
        id="path_6"
        d="M 103.517 162.943 L 96.061 166.368 L 88.606 162.984"
        fill="none"
        stroke="#000000"
        stroke-width="6"
        stroke-linecap="round"
        stroke-linejoin="round"/>
    <path
        id="path_7"
        d="M 77.71 157.969 L 61.324 150.508"
        fill="none"
        stroke="#000000"
        stroke-width="6"
        stroke-linecap="round"
        stroke-linejoin="round"/>
    <path
        id="path_8"
        d="M 55.835 148.022 L 48.421 144.638 L 47.642 136.525"
        fill="none"
        stroke="#000000"
        stroke-width="6"
        stroke-linecap="round"
        stroke-linejoin="round"/>
    <path
        id="path_9"
        d="M 45.799 116.792 L 43.013 87.194"
        fill="none"
        stroke="#000000"
        stroke-width="6"
        stroke-linecap="round"
        stroke-linejoin="round"/>
    <path
        id="path_10"
        d="M 42.112 77.328 L 41.334 69.215 M 60.464 61.835 L 72.466 16.5 L 109.825 26.162 L 100.731 61.835 M 69.476 27.875 L 85.861 32.318 M 65.257 43.815 L 81.437 48.259 M 63.29 51.725 L 74.269 54.619 M 67.387 35.988 L 77.955 38.801 M 61.119 59.43 L 69.64 61.835 M 109.702 61.835 L 114.085 50.95 L 123.63 55.027 L 122.073 62.08 M 115.642 51.358 L 118.551 43.571 L 124.982 45.813 L 121.991 53.967"
        fill="none"
        stroke="#000000"
        stroke-width="6"
        stroke-linecap="round"
        stroke-linejoin="round"/>
    <path
        id="path_11"
        d="M 118.551 43.571 C 118.059 36.192 119.001 21.515 131.126 17.805 C 136.656 27.793 131.946 38.515 124.982 45.813 M 143.825 54.212 L 140.016 61.835 M 129.201 61.835 L 134.731 49.605 M 133.584 48.218 L 147.635 34.316 L 145.791 53.967 C 143.402 54.316 140.962 53.958 138.777 52.935 C 136.591 51.913 134.756 50.272 133.502 48.218"
        fill="none"
        stroke="#000000"
        stroke-width="6"
        stroke-linecap="round"
        stroke-linejoin="round"/>
</svg>
